images/ic_others.svg

<svg width="20" height="20" viewBox="0 0 20 20" fill="none" xmlns="http://www.w3.org/2000/svg">
<path d="M11.8629 2.2704L9.9736 4.1597C8.87701 5.25629 8.87701 7.04059 9.9736 8.13718L11.8629 10.0265C12.9595 11.1231 14.7438 11.1231 15.8404 10.0265L17.7297 8.13718C18.8263 7.04059 18.8263 5.25629 17.7297 4.1597L15.8404 2.2704C14.7438 1.17381 12.9595 1.17381 11.8629 2.2704ZM16.7353 5.15407C17.2836 5.70236 17.2836 6.59451 16.7353 7.14281L14.846 9.03211C14.2977 9.5804 13.4056 9.5804 12.8573 9.03211L10.968 7.14281C10.4197 6.59451 10.4197 5.70236 10.968 5.15407L12.8573 3.26477C13.4056 2.71647 14.2977 2.71647 14.846 3.26477L16.7353 5.15407Z" fill="#1B76BC"/>
<path d="M5.48438 2H2.8125C1.26169 2 0 3.26169 0 4.8125V7.48438C0 9.03519 1.26169 10.2969 2.8125 10.2969H5.48438C7.03519 10.2969 8.29688 9.03519 8.29688 7.48438V4.8125C8.29688 3.26169 7.03519 2 5.48438 2ZM6.89062 7.48438C6.89062 8.25978 6.25978 8.89062 5.48438 8.89062H2.8125C2.03709 8.89062 1.40625 8.25978 1.40625 7.48438V4.8125C1.40625 4.03709 2.03709 3.40625 2.8125 3.40625H5.48438C6.25978 3.40625 6.89062 4.03709 6.89062 4.8125V7.48438Z" fill="#1B76BC"/>
<path d="M5.48438 11.7031H2.8125C1.26169 11.7031 0 12.9648 0 14.5156V17.1875C0 18.7383 1.26169 20 2.8125 20H5.48438C7.03519 20 8.29688 18.7383 8.29688 17.1875V14.5156C8.29688 12.9648 7.03519 11.7031 5.48438 11.7031ZM6.89062 17.1875C6.89062 17.9629 6.25978 18.5938 5.48438 18.5938H2.8125C2.03709 18.5938 1.40625 17.9629 1.40625 17.1875V14.5156C1.40625 13.7402 2.03709 13.1094 2.8125 13.1094H5.48438C6.25978 13.1094 6.89062 13.7402 6.89062 14.5156V17.1875Z" fill="#1B76BC"/>
<path d="M17.2969 16.4844C16.9085 16.4844 16.5938 16.7992 16.5938 17.1875C16.5938 17.9629 15.9629 18.5938 15.1875 18.5938H12.5156C11.7402 18.5938 11.1094 17.9629 11.1094 17.1875V14.5156C11.1094 13.7402 11.7402 13.1094 12.5156 13.1094H15.1875C15.7467 13.1094 16.2528 13.4405 16.4769 13.953C16.6324 14.3088 17.047 14.471 17.4028 14.3155C17.7586 14.1599 17.9209 13.7454 17.7653 13.3896C17.3173 12.3651 16.3055 11.7031 15.1875 11.7031H12.5156C10.9648 11.7031 9.70312 12.9648 9.70312 14.5156V17.1875C9.70312 18.7383 10.9648 20 12.5156 20H15.1875C16.7383 20 18 18.7383 18 17.1875C18 16.7992 17.6852 16.4844 17.2969 16.4844Z" fill="#1B76BC"/>
</svg>

<svg xmlns="http://www.w3.org/2000/svg" viewBox="0 0 20 20" fill="#1b76bc"><path d="M11.863 2.27l-1.9 1.9c-1.097 1.097-1.097 2.88 0 3.978l1.9 1.9c1.097 1.097 2.88 1.097 3.978 0l1.9-1.9c1.097-1.097 1.097-2.88 0-3.977l-1.9-1.9c-1.097-1.097-2.88-1.097-3.978 0zm4.872 2.884a1.41 1.41 0 0 1 0 1.989l-1.9 1.9a1.41 1.41 0 0 1-1.989 0l-1.9-1.9a1.41 1.41 0 0 1 0-1.989l1.9-1.9a1.41 1.41 0 0 1 1.989 0l1.9 1.9zM5.484 2h-2.67C1.262 2 0 3.262 0 4.813v2.672a2.82 2.82 0 0 0 2.813 2.813h2.672a2.82 2.82 0 0 0 2.813-2.813V4.813A2.82 2.82 0 0 0 5.484 2zM6.9 7.484A1.41 1.41 0 0 1 5.484 8.89h-2.67a1.41 1.41 0 0 1-1.406-1.406v-2.67a1.41 1.41 0 0 1 1.406-1.406h2.672a1.41 1.41 0 0 1 1.406 1.406v2.672zm-1.416 4.22h-2.67C1.262 11.703 0 12.965 0 14.516v2.672C0 18.738 1.262 20 2.813 20h2.672a2.82 2.82 0 0 0 2.813-2.812v-2.672c0-1.55-1.262-2.812-2.813-2.812zM6.9 17.187a1.41 1.41 0 0 1-1.406 1.406h-2.67a1.41 1.41 0 0 1-1.406-1.406v-2.672a1.41 1.41 0 0 1 1.406-1.406h2.672a1.41 1.41 0 0 1 1.406 1.406v2.672zm10.407-.703c-.388 0-.703.315-.703.703a1.41 1.41 0 0 1-1.406 1.406h-2.672a1.41 1.41 0 0 1-1.406-1.406v-2.672a1.41 1.41 0 0 1 1.406-1.406h2.672a1.43 1.43 0 0 1 1.3.844.7.7 0 0 0 .926.362c.356-.156.518-.57.363-.926-.448-1.025-1.46-1.687-2.578-1.687h-2.672c-1.55 0-2.812 1.262-2.812 2.813v2.672A2.82 2.82 0 0 0 12.518 20H15.2c1.548 0 2.8-1.262 2.8-2.813 0-.388-.315-.703-.703-.703z"/></svg>
